lib/icons/wallet.svg

<svg width="16" height="16" viewBox="0 0 16 16" fill="none" xmlns="http://www.w3.org/2000/svg">
<path fill-rule="evenodd" clip-rule="evenodd" d="M2.73445 0C1.85849 0 1.15833 0.283792 0.67951 0.759483C0.273928 1.16241 0.052371 1.6788 0.00824367 2.20729L0.0069622 2.22329C0.000376098 2.30917 -0.00153062 2.39534 0.00121378 2.48137C0.00219195 2.51203 0.00375026 2.54264 0.0058853 2.57318C0.00564002 3.69575 0.0043095 6.03637 0.00297882 8.18637L0.000952982 11.3426L0.00028535 12.3408L9.83105e-05 12.6165L4.90473e-05 12.6887L3.64111e-05 12.7072L3.31924e-05 12.7118L3.23878e-05 12.713L3.2209e-05 12.7133L0.500032 12.7137L3.20301e-05 12.7134V12.7137C3.20599e-05 13.8639 0.187056 14.7674 0.867473 15.3353C1.51755 15.8779 2.49474 15.9996 3.71269 15.9996H15.4884C15.7644 15.9996 15.9882 15.776 15.9884 15.5001L15.9996 4.43135C15.9997 4.29865 15.9471 4.17135 15.8533 4.07747C15.7595 3.98359 15.6323 3.93085 15.4996 3.93085H2.85985C1.63277 3.93085 1.06841 3.20685 1.00589 2.5327L1.00593 2.27685C1.03388 1.97676 1.16055 1.69118 1.38429 1.46891C1.64736 1.20756 2.07962 1 2.73445 1H11.2548V2.18465C11.2548 2.46079 11.4787 2.68465 11.7548 2.68465C12.0309 2.68465 12.2548 2.46079 12.2548 2.18465V0.5C12.2548 0.223858 12.0309 0 11.7548 0H2.73445ZM1.00298 8.18699L1.00516 4.37121C1.47436 4.71605 2.09891 4.93085 2.85985 4.93085H14.9991L14.9889 14.9996H3.71269C2.48135 14.9996 1.85222 14.8547 1.50829 14.5676C1.1947 14.3059 1.00003 13.8163 1.00003 12.7137L1.00003 12.7137L1.00003 12.7125L1.00004 12.7078L1.00005 12.6894L1.0001 12.6172L1.00029 12.3415L1.00095 11.3432L1.00298 8.18699ZM11.8987 10.2307C11.8987 11.0032 11.2614 11.6503 10.4494 11.6503C9.63749 11.6503 9.00015 11.0032 9.00015 10.2307C9.00015 9.4581 9.63749 8.81107 10.4494 8.81107C11.2614 8.81107 11.8987 9.4581 11.8987 10.2307ZM12.8987 10.2307C12.8987 11.567 11.8021 12.6503 10.4494 12.6503C9.09673 12.6503 8.00015 11.567 8.00015 10.2307C8.00015 8.89436 9.09673 7.81107 10.4494 7.81107C11.8021 7.81107 12.8987 8.89436 12.8987 10.2307Z" fill="#8358FF"/>
</svg>

<svg width="16" height="16" fill="none" xmlns="http://www.w3.org/2000/svg"><path fill-rule="evenodd" clip-rule="evenodd" d="M2.734 0C1.858 0 1.158.284.68.76a2.3 2.3 0 0 0-.672 1.447l-.001.016a2.382 2.382 0 0 0-.001.35L.003 8.186l-.002 3.157v1.274L0 12.688v.024h.5H0c0 1.15.187 2.054.867 2.622.65.543 1.628.665 2.846.665h11.775a.5.5 0 0 0 .5-.5L16 4.431a.5.5 0 0 0-.5-.5H2.86c-1.227 0-1.792-.724-1.854-1.398v-.256a1.3 1.3 0 0 1 .378-.808C1.647 1.208 2.08 1 2.734 1h8.52v1.185a.5.5 0 0 0 1 0V.5a.5.5 0 0 0-.5-.5h-9.02ZM1.003 8.187l.002-3.816c.47.345 1.094.56 1.855.56H15L14.988 15H3.713c-1.232 0-1.86-.145-2.205-.432-.313-.262-.508-.752-.508-1.854v-.373l.001-.998.002-3.156Zm10.896 2.044c0 .772-.638 1.42-1.45 1.42-.812 0-1.449-.648-1.449-1.42 0-.773.637-1.42 1.45-1.42.811 0 1.449.647 1.449 1.42Zm1 0c0 1.336-1.097 2.42-2.45 2.42C9.097 12.65 8 11.566 8 10.23c0-1.337 1.097-2.42 2.45-2.42 1.352 0 2.449 1.083 2.449 2.42Z" fill="#8358FF"/></svg>
